X:1
T:Tie-Hacker Hoedown No 2
T:Tiehacker Hoedown [2]
N:From the playing of Nile Wilson (1912-2008, Linn County, north-central Mo.)
M:C|
L:1/8
R:Reel
Q:"Moderately Quick"
D:MSOTFO 202, Nile Wilson - "Tie Hacker Hoe-down" (1995)
D: https://www.slippery-hill.com/recording/tiehacker-tune-2
Z:Transcribed by Andrew Kuntz
K:C
+slide+[e3e3]g e2d2|cded c2G2|efga g2eg|a2 g2 e2d2|
cdef e2d2|cded c2A2|G2[G2c2] AGAB|1 d2B2 c4:|2 d2B2c2||
|:G2-|G2A2G2A2|cdcA G2(Bc|d2)(Bc d2) (Bc|d)edB G2(AB|
c2)(AB c2)(AB|c)dcA G2G2-|A2A2 BABc |1d2B2.[Ec]z:|2 d2B2[E4c4]||

